!!!OTL: ADE JETZT MUSS ICH SCHEIDEN
!!!ARE: Europa, Mitteleuropa, Deutschland, Schlesien
!!!SCT: E0767
!!!YEM: Copyright 1995, estate of Helmut Schaffrath.
**kern
*ICvox
*Ivox
*M4/4
*k[b-]
*F:
{4c
=1
4f
4f
4cc
4cc
=2
4a
4cc
4f}
{4a
=3
4g
4b-
4e
4g
=4
2f
4r}
{4c
=5
4f
4f
4cc
4cc
=6
4a
4cc
4f}
{4a
=7
4g
4b-
4e
4g
=8
2f
2r}
=9
{2a
4f
4a
=10
4cc
8b-
8a
2g}
=11
{2a
4f
4a
=12
4cc
8b-
8a
4g}
{4c
=13
4f
4f
4cc
4cc
=14
4a
4cc
4f}
{4a
=15
4g
4b-
4e
4g
=16
2f
4r}
==
!!!AGN: Abschieds - Lied, Liebe
!!!ONB: ESAC (Essen Associative Code) Database: ERK2
!!!AMT: simple quadruple
!!!AIN: vox
!!!EED: Helmut Schaffrath
!!!EEV: 1.0
*-
